icons/3_Generic/User.svg

<svg xmlns="http://www.w3.org/2000/svg" viewBox="0 0 1024 1024">
   <circle cx="512" cy="512" r="512" style="fill:#6750a4"/>
   <path d="M767.74 712.7c-39.96-69.05-102.68-117.49-175.57-138.04 87.1-44.27 121.81-150.77 77.54-237.87-44.27-87.1-150.77-121.81-237.87-77.54-87.1 44.27-121.81 150.77-77.54 237.87a176.864 176.864 0 0 0 77.54 77.54c-72.89 20.52-135.62 68.97-175.57 138.04-4.49 7.07-2.41 16.44 4.66 20.93 7.07 4.49 16.44 2.41 20.93-4.66.23-.36.44-.73.64-1.11 48.55-83.88 134.33-133.95 229.51-133.95s180.96 50.07 229.51 133.95c3.88 7.42 13.04 10.29 20.47 6.41 7.42-3.88 10.29-13.04 6.41-20.47-.2-.38-.41-.75-.64-1.11ZM365.42 417c0-80.96 65.63-146.58 146.58-146.58S658.58 336.05 658.58 417 592.95 563.58 512 563.58c-80.92-.1-146.49-65.67-146.58-146.58Z" style="fill:#fff"/>
</svg>

<svg width="1024" height="1024" viewBox="0 0 1024 1024" fill="none" xmlns="http://www.w3.org/2000/svg">
<g clip-path="url(#clip0_3_446)">
<path d="M512 1024C794.77 1024 1024 794.77 1024 512C1024 229.23 794.77 0 512 0C229.23 0 0 229.23 0 512C0 794.77 229.23 1024 512 1024Z" fill="#8C72BD"/>
<path d="M767.74 712.7C727.78 643.65 665.06 595.21 592.17 574.66C679.27 530.39 713.98 423.89 669.71 336.79C625.44 249.69 518.94 214.98 431.84 259.25C344.74 303.52 310.03 410.02 354.3 497.12C371.279 530.529 398.431 557.681 431.84 574.66C358.95 595.18 296.22 643.63 256.27 712.7C251.78 719.77 253.86 729.14 260.93 733.63C268 738.12 277.37 736.04 281.86 728.97C282.09 728.61 282.3 728.24 282.5 727.86C331.05 643.98 416.83 593.91 512.01 593.91C607.19 593.91 692.97 643.98 741.52 727.86C745.4 735.28 754.56 738.15 761.99 734.27C769.41 730.39 772.28 721.23 768.4 713.8C768.2 713.42 767.99 713.05 767.76 712.69L767.74 712.7ZM365.42 417C365.42 336.04 431.05 270.42 512 270.42C592.95 270.42 658.58 336.05 658.58 417C658.58 497.95 592.95 563.58 512 563.58C431.08 563.48 365.51 497.91 365.42 417Z" fill="white"/>
</g>
<defs>
<clipPath id="clip0_3_446">
<rect width="1024" height="1024" fill="white"/>
</clipPath>
</defs>
</svg>
